X:1
T:Title
%%score { ( 1 3 ) | 2 }
L:1/8
M:6/8
K:D
V:1 treble nm="Grand Piano"
V:3 treble 
V:2 bass 
V:1
 z3 z2[Q:1/4=95] D/E/ | F2 F FED | F2 F F2 [EG] | [FA]2 [DF] [DG]2 [GB] | [FA]3- [FA]2 [FA]/[FA]/ | %5
 B2 G dcB |[M:5/8] [FA]2 [DF] [FA]2 |[M:1/8] [FA]/[=FB]/ |[M:3/4] c2 d c2 B | %9
[M:5/8] [CA]-[CA]- [CA]3 |[M:1/8] A |[M:3/4] [Fd]2 [DAd] [DAc]2 [DGB] | A6 | F2 [GB] [FA]2 [DF] | %14
 E6 | F2 [EG] [FA]2 [FA] | [GB]2 [Ac] [Ad]2 [Ad]/[Be]/ | f3 e3 |[M:5/8] d-d- d3 |] %19
V:2
 z3 z2 [D,F,]/[D,G,D]/ | [D,A,D]2 [D,A,D] [D,A,D][D,G,D][D,F,] | [D,A,D]2 [D,A,D] [D,A,D]2 [D,A,] | %3
 [D,D]2 [D,A,] [D,B,]2 [D,D] | [D,D]3- [D,D]2 [D,D]/[D,D]/ | [G,DG]2 [G,B,D] [G,B,G][G,CG][G,DG] | %6
[M:5/8][K:bass] [D,D]2 [D,A,] [D,D]2 |[M:1/8] [D,D]/[D,A,]/ | %8
[M:3/4] [E,A,E]2 [E,B,E] [E,A,E]2 [E,^G,D] |[M:5/8] [A,,A,]-[A,,A,]- [A,,A,]3 |[M:1/8] [A,G] | %11
[M:3/4] [D,A,]2 F, G,2 G, | D,2 E, F,2 [F,A,]/[E,A,C]/ | [D,A,D]2 [D,D] [D,D]2 [D,A,] | %14
 [A,,A,]2 [B,,^G,] [A,,=G,]2 [D,F,]/[D,G,D]/ | [D,A,D]2 [D,A,] [D,D]2 [D,D] | %16
 [G,D]2 [G,E] [F,D]2 [F,D]/[K:treble][G,D]/ | [A,DA]2[K:bass] [A,D] [A,,CG]2 [A,,A,] | %18
[M:5/8] [D,A,]2 [D,B,] [D,A,]2 |] %19
V:3
 x6 | x6 | x6 | x6 | x6 | x6 |[M:5/8] x5 |[M:1/8] x |[M:3/4] x6 |[M:5/8] x5 |[M:1/8] x | %11
[M:3/4] x6 | [DF]2 [CG] D2 D/E/ | x6 | C2 D C2 D/E/ | x6 | x6 | z2 .A2 z G |[M:5/8] F2 G F2 |] %19

